assets/Smiling face with hearts/Flat/smiling_face_with_hearts_flat.svg

<svg width="32" height="32" viewBox="0 0 32 32" fill="none" xmlns="http://www.w3.org/2000/svg">
<path d="M15.9989 29.9978C25.3333 29.9978 29.9978 23.7303 29.9978 15.9989C29.9978 8.26751 25.3333 2 15.9989 2C6.66443 2 2 8.26751 2 15.9989C2 23.7303 6.66443 29.9978 15.9989 29.9978Z" fill="#FFB02E"/>
<path d="M8.98156 11.1909C9.02964 10.9436 9.13971 10.6405 9.34896 10.4125C9.52829 10.2171 9.84698 10 10.4999 10C11.1417 10 11.4685 10.2216 11.6572 10.4288C11.8753 10.6683 11.9804 10.9737 12.0147 11.1711C12.1092 11.7152 12.6269 12.0797 13.171 11.9853C13.7152 11.8908 14.0797 11.373 13.9852 10.8289C13.9062 10.374 13.6799 9.6794 13.1357 9.08196C12.562 8.45218 11.6955 8 10.4999 8C9.31564 8 8.45269 8.4313 7.87551 9.06013C7.32826 9.65637 7.10696 10.3533 7.01833 10.8091C6.91291 11.3513 7.26694 11.8762 7.80907 11.9816C8.3512 12.087 8.87614 11.733 8.98156 11.1909Z" fill="#402A32"/>
<path d="M19.9818 11.1909C20.0299 10.9436 20.14 10.6405 20.3492 10.4125C20.5285 10.2171 20.8472 10 21.5002 10C22.1419 10 22.4687 10.2216 22.6574 10.4288C22.8756 10.6683 22.9807 10.9737 23.0149 11.1711C23.1094 11.7152 23.6271 12.0797 24.1713 11.9853C24.7154 11.8908 25.0799 11.373 24.9854 10.8289C24.9064 10.374 24.6802 9.6794 24.1359 9.08196C23.5623 8.45218 22.6957 8 21.5002 8C20.3159 8 19.4529 8.4313 18.8758 9.06013C18.3285 9.65637 18.1072 10.3533 18.0186 10.8091C17.9132 11.3513 18.2672 11.8762 18.8093 11.9816C19.3514 12.087 19.8764 11.733 19.9818 11.1909Z" fill="#402A32"/>
<path d="M12 15C12.5523 15 13 15.4477 13 16C13 16.5066 13.1602 17.2889 13.6115 17.9157C14.0261 18.4915 14.7259 19 16 19C17.2741 19 17.9739 18.4915 18.3885 17.9157C18.8398 17.2889 19 16.5066 19 16C19 15.4477 19.4477 15 20 15C20.5523 15 21 15.4477 21 16C21 16.8267 20.7602 18.0445 20.0115 19.0843C19.2261 20.1751 17.9259 21 16 21C14.0741 21 12.7739 20.1751 11.9885 19.0843C11.2398 18.0445 11 16.8267 11 16C11 15.4477 11.4477 15 12 15Z" fill="#402A32"/>
<path d="M3.00021 1.09997C4.2129 0.740272 5.50009 1.49998 6.00009 1.99998C6.49997 1.50001 8.16818 0.168183 9.75 1.75001C11.0248 3.02476 10.5002 4.99997 9.50015 6.49997C8.91141 7.38308 7.38383 8.7717 6.1531 9.70922C5.50894 10.1999 4.61341 10.0545 4.0674 9.45654C3.14284 8.44398 1.97268 7.14513 1.4001 5.99997C0.400103 3.99997 1.4003 1.57453 3.00021 1.09997Z" fill="#F70A8D"/>
<path d="M4.00015 28C2.88205 26.882 2.50013 25 3.50012 24C4.50011 23 6.50007 23.5 6.50007 23.5C6.50007 23.5 7.00015 22.25 8.50015 22.5C10.5002 22.75 10.7502 25 10.2502 26.5C9.8681 27.6462 8.94272 28.8686 8.2707 29.6561C7.83861 30.1624 7.10261 30.2351 6.55273 29.86C5.62817 29.2293 4.3159 28.3157 4.00015 28Z" fill="#F70A8D"/>
<path d="M26.5 18.5C26.1667 18 24.5 16.6 23 17.1C21.1026 17.7325 21 20 22 21.5C22.6252 22.4378 24.3916 24.5336 25.3546 25.6599C25.7111 26.0769 26.3333 26.1228 26.736 25.7502C27.94 24.6362 30.2698 22.3255 31 20.5C31.5571 19.1073 31 17 29 17C27.4 17 26.6667 18 26.5 18.5Z" fill="#F70A8D"/>
</svg>

<svg xmlns="http://www.w3.org/2000/svg" width="32" height="32" fill="none"><path fill="#FFB02E" d="M15.999 29.998c9.334 0 13.999-6.268 13.999-14 0-7.73-4.665-13.998-14-13.998C6.665 2 2 8.268 2 15.999c0 7.731 4.664 13.999 13.999 13.999Z"/><path fill="#402A32" d="M8.982 11.19c.048-.246.158-.55.367-.777.18-.196.498-.413 1.15-.413.643 0 .97.222 1.158.429.218.24.323.545.358.742a1 1 0 0 0 1.97-.342 3.544 3.544 0 0 0-.85-1.747C12.563 8.452 11.696 8 10.5 8c-1.184 0-2.047.431-2.624 1.06-.548.596-.769 1.293-.858 1.75a1 1 0 1 0 1.964.38ZM19.982 11.19c.048-.246.158-.55.367-.777.18-.196.498-.413 1.151-.413.642 0 .969.222 1.157.429.219.24.324.545.358.742a1 1 0 0 0 1.97-.342 3.543 3.543 0 0 0-.85-1.747C23.563 8.452 22.696 8 21.5 8c-1.184 0-2.047.431-2.624 1.06-.548.596-.769 1.293-.857 1.75a1 1 0 1 0 1.963.38ZM12 15a1 1 0 0 1 1 1c0 .507.16 1.289.611 1.916C14.026 18.49 14.726 19 16 19c1.274 0 1.974-.509 2.389-1.084.45-.627.611-1.41.611-1.916a1 1 0 1 1 2 0c0 .827-.24 2.044-.988 3.084C19.226 20.175 17.926 21 16 21c-1.926 0-3.226-.825-4.011-1.916C11.239 18.044 11 16.827 11 16a1 1 0 0 1 1-1Z"/><path fill="#F70A8D" d="M3 1.1c1.213-.36 2.5.4 3 .9.5-.5 2.168-1.832 3.75-.25C11.025 3.025 10.5 5 9.5 6.5c-.589.883-2.116 2.272-3.347 3.21-.644.49-1.54.345-2.086-.253C3.143 8.444 1.973 7.145 1.4 6c-1-2 0-4.425 1.6-4.9ZM4 28c-1.118-1.118-1.5-3-.5-4s3-.5 3-.5.5-1.25 2-1c2 .25 2.25 2.5 1.75 4-.382 1.146-1.307 2.369-1.98 3.156-.431.506-1.167.58-1.717.204C5.628 29.23 4.316 28.316 4 28ZM26.5 18.5c-.333-.5-2-1.9-3.5-1.4-1.897.633-2 2.9-1 4.4.625.938 2.392 3.034 3.355 4.16a.956.956 0 0 0 1.381.09C27.94 24.636 30.27 22.326 31 20.5c.557-1.393 0-3.5-2-3.5-1.6 0-2.333 1-2.5 1.5Z"/></svg>
